!!!COM: Beethoven, Ludwig van
!!!CDT: 1770///-1827///
!!!OTL: Piano Sonata no. 28 in A major
!!!OPS: 101
!!!OMV: 4
!!!OMD: Allegro
**kern	**kern	**dynam
*staff2	*staff1	*staff1/2
*Ipiano	*Ipiano	*Ipiano
*>[A,B,B1,B,B2,C]	*>[A,B,B1,B,B2,C]	*>[A,B,B1,B,B2,C]
*>[A,B,B2,C]	*>[A,B,B2,C]	*>[A,B,B2,C]
*>A	*>A	*>A
*clefG2	*clefG2	*clefG2
*k[f#c#g#]	*k[f#c#g#]	*k[f#c#g#]
*A:	*A:	*A:
*M2/4	*M2/4	*M2/4
*MM132	*MM132	*MM132
=1-	=1-	=1-
4r	[2ee\	mf
8r	.	.
8e'/ 8g#'/ 8b'/ 8dd'/	.	.
*clefF4	*	*
=2	=2	=2
4E'\ 4G#'\ 4B'\ 4d'\	2ee\_	.
4r	.	.
=3	=3	=3
4r	2ee\_	.
8r	.	.
8G#'\ 8B'\ 8d'\	.	.
=4	=4	=4
4EE/ 4GG#/ 4BB/ 4D/	4.ee\]	.
8r	.	.
8EE'/ 8E'/	8ee'\ 8gg#'\ 8bb'\ 8eee'\	f
=5!|:	=5!|:	=5!|:
*>B	*>B	*>B
8AA'/ 8A'/	[4cc#\ [4ee\ [4aa\ [4ccc#\	.
*clefG2	*	*
8B'/ 8b'/	.	.
[4A/ (4a/	16cc#\] 16ee\] 16aa\] 16ccc#\LL]	.
.	16ddd\	.
.	16eee\	.
.	16fff#\JJ	.
=6	=6	=6
16A/LL])	4b\ 4bb\	.
16B/	.	.
16c#/	.	.
16d/JJ	.	.
4G#/	8r	.
.	8ee'\ 8eee'\	.
*clefF4	*	*
=7	=7	=7
8r	[4a\ [4aa\	.
8G#'\ 8g#'\	.	.
[4F#\ [4f#\	16a\] 16aa\LL]	.
.	16bb\	.
.	16ccc#\	.
.	16ddd\JJ	.
=8	=8	=8
16F#\] 16f#\LL]	4g#\ 4gg#\	.
16G#\	.	.
16A\	.	.
16B\JJ	.	.
8E\	8r	.
*clefG2	*	*
[8e/ [8ee/	8ccc#\	p
=9	=9	=9
8e/] 8ee/]	16ff#\LL	.
.	16gg#\	.
4e/ 4dd/	16aa\	.
.	16bb\JJ	.
.	16aa\LL	.
.	16gg#\	.
[8e/ [8b/	16ff#\	.
.	16gg#\JJ	.
=10	=10	=10
8e/] 8b/]	16aa\LL	.
.	16bb\	.
4e/ 4a/	16ccc#\	.
.	16ddd\JJ	.
.	16ccc#\LL	.
.	16bb\	.
8e/ 8g#/	16aa\	.
.	16bb\JJ	.
=11	=11	=11
*	*8va	*
8a/L	(16ccc#\LL	.
.	16ddd\	.
8g#/	16eee\	.
.	16fff#\JJ	.
8f#/	16ggg#\LL	.
.	16aaa\	.
8B/ 8b/J	16ccc#\	.
.	16ddd\JJ)	.
=12	=12	=12
4B;/ 4b;/	4aa;\ 4fff#;\	.
8e;/ 8b;/	8gg#;\ 8eee;\	f
*	*X8va	*
*clefF4	*	*
8E'\ 8e'\	8r	.
=13	=13	=13
[4C#\ [4c#\	8r	.
.	8b'\ 8bb'\	.
16C#\] 16c#\LL]	[4a\ [4aa\	.
16d\	.	.
16e\	.	.
16f#\JJ	.	.
=14	=14	=14
4BB\ 4B\	16a\] 16aa\LL]	.
.	16bb\	.
.	16ccc#\	.
.	16ddd\JJ	.
8r	8g#\ 8gg#\	.
8E'\ 8e'\	8r	.
=15	=15	=15
[4AA\ [4A\	8r	.
.	8g#'\ 8gg#'\	.
16AA\] 16A\LL]	[4f#\ [4ff#\	.
16B\	.	.
16c#\	.	.
16d\JJ	.	.
=16	=16	=16
4GG#\ 4G#\	16f#\] 16ff#\LL]	.
.	16gg#\	.
.	16aa\	.
.	16bb\JJ	.
8r	8e\ 8ee\	.
8E\	8g#\ [8ee\	p
=17	=17	=17
*	*^	*
16F#\LL	8ee/]	8a\	.
16G#\	.	.	.
16A\	4dd/	[8d\ (8f#\L	.
16B\JJ	.	.	.
16A\LL	.	8d\] 8b\J)	.
16G#\	.	.	.
16F#\	8b/	8d\ 8e\	.
16G#\JJ	.	.	.
=18	=18	=18	=18
16A\LL	8a/	16c#\LL	.
16B\	.	16d\	.
16c#\	4a/	16e\	.
16d\JJ	.	16f#\JJ	.
16c#\LL	.	16e\LL	.
16B\	.	16d\	.
16A\	[8a/	16c#\	.
16B\JJ	.	16d\JJ	.
*clefG2	*	*	*
=19	=19	=19	=19
16c#/LL	8a/]	8e\	.
16d/	.	.	.
16e/	4r	4cc#\	.
16f#/JJ	.	.	.
16g#/LL	.	.	.
16a/	.	.	.
16f#/	8r	[8cc#\ [8aa\	.
16d#/JJ	.	.	.
*clefF4	*	*	*
*	*v	*v	*
=20	=20	=20
*^	*	*
16e/LL	8r	8cc#\] (8aa\L]	.
16f#/	.	.	.
16dn/	8E\	8b\ 8gg#\	.
16B/JJ	.	.	.
4r	16A\LL	8cc#\ 8aa\J)	.
.	16c#\	.	.
.	16A\	8ee'\	.
.	16c#\JJ	.	.
=21	=21	=21	=21
*	*	*^	*
2B/	8E\L	(4.dd/	8r	.
.	8Fn\J	.	8a\	.
.	4E\	.	4g#\	.
.	.	8ee/	.	.
=22	=22	=22	=22	=22
(4A/	4.E\	8cc#/L	4.a\	.
.	.	8aa/	.	.
8c#/L)	.	8ee/J)	.	.
8e/J	8E\	8r	8r	.
*	*	*v	*v	*
=23	=23	=23	=23
4.d/	(8E\L	8r	.
.	8Fn\J	4b\ 4gg#\	.
.	4E\)	.	.
8e/	.	8b\ 8gg#\	.
*v	*v	*	*
=24	=24	=24
8E\ (8c#\L	8a\ (8aa\L	.
*clefG2	*	*
8a\)	8cc#\ 8ee\)	.
8e'\J	8a'\ 8cc#'\J	.
*clefF4	*	*
8E'\ 8B'\	8g#'\ 8ee'\	.
=25	=25	=25
*^	*^	*
[4B/	8E\L	4.dd/	(8g#\L	.
.	8Fn\J	.	8a\J)	.
4B/_	[4E\	.	[4g#\	.
.	.	8ee/	.	.
=26	=26	=26	=26	=26
4B/]	8E\L]	4.dd/	8g#\L]	.
.	8Fn\J	.	8a\J	.
4r	[4E\ [4B\	.	[4g#\	.
.	.	8ee/	.	.
*v	*v	*	*	*
=27	=27	=27	=27
8E\] 8B\L]	8dd/L	8g#\L]	.
8E\ [8B\	8ee/	8g#\	.
8Fn\ 8B\]	8dd/	8a\	.
8E\ [8B\J	8ee/J	[8g#\J	.
=28	=28	=28	=28
*^	*	*	*
4B/]	8Fn\L	16dd/LL	8g#\]	.
.	.	16ee/	.	.
.	16E\L	16ff#/	8r	.
.	16D\JJ	16gg#/JJ	.	.
8C#/	4r	4r	16aa\LL	.
.	.	.	16bb\	.
8EE'/	.	.	16ccc#\	.
.	.	.	16ddd\JJ	.
*v	*v	*	*	*
*	*v	*v	*
=29	=29	=29
[4CC#/	8ee\ 8eee\L	f
.	8b'\ 8bb'\J	.
16CC#/LL]	[4a\ [4aa\	.
16DD/	.	.
16EE/	.	.
16FF#/JJ	.	.
=30	=30	=30
4BBB/	16a\] 16aa\LL]	.
.	16bb\	.
.	16ccc#\	.
.	16ddd\JJ	.
8r	4g#\ 4gg#\	.
8EE'/	.	.
=31	=31	=31
[4AAA/	8r	.
.	8g#'\ 8gg#'\	.
16AAA/LL]	[4f#\ [4ff#\	.
16BBB/	.	.
16CC#/	.	.
16DD/JJ	.	.
=32	=32	=32
4GGG#/	16f#\] 16ff#\LL]	.
.	16gg#\	.
.	16aa\	.
.	16bb\JJ	.
8r	4e\ 4ee\	.
8EE/	.	.
*	*clefF4	*clefF4
=33	=33	=33
16FF#/LL	8r	.
16GG#/	.	.
16AA/	8E\	.
16BB/JJ	.	.
16AA/LL	16F#\LL	.
16GG#/	16G#\	.
16FF#/	16A\	.
16GG#/JJ	16B\JJ	.
=34	=34	=34
16AA/LL	16A\LL	.
16BB/	16G#\	.
16C#/	16A\	.
16D/JJ	16B\JJ	.
16C#/LL	16A\LL	.
16BB/	16G#\	.
16AA/	16F#\	.
16BB/JJ	16G#\JJ	.
=35	=35	=35
16C#\LL	16A\LL	.
16D\	16B\	.
16E\	16c#\	.
16F#\JJ	16d\JJ	>
*	*clefG2	*clefG2
16G#\LL	16e/LL	.
16A\	16f#/	.
16F#\	16g#/	.
16D#\JJ	16a/JJ	.
=36	=36	=36
16E\LL	16g#/LL	.
16F#\	16a/	.
16Dn\	16f#/	.
16BB\JJ	16d/JJ	.
16C#/LL	16e/LL	.
16D/	16f#/	.
16E/	16B/	.
16EE/JJ	16e/JJ	.
=37	=37	=37
*^	*^	*
16C#/LL	4AA\	8A/	4r	p
16D/	.	.	.	.
16E/	.	8r	.	.
16F#/JJ	.	.	.	.
8E/	4r	[4a/	16c#\LL	.
.	.	.	16d\	.
8r	.	.	16e\	.
.	.	.	16f#\JJ	.
=38	=38	=38	=38	=38
16C#/LL	4AA\	8a/]	8e\	.
16D/	.	.	.	.
16E/	.	8r	8r	.
16F#/JJ	.	.	.	.
8E/	4r	[4a/	16c#\LL	.
.	.	.	16d\	.
8r	.	.	16e\	.
.	.	.	16f#\JJ	.
=39	=39	=39	=39	=39
16D/LL	4BB\	8a/]	8e\	.
16E/	.	.	.	.
16F#/	.	8r	8r	.
16E/JJ	.	.	.	.
8E/	4r	(4g#/	16d\LL	.
.	.	.	16e\	.
8r	.	.	16f#\	.
.	.	.	16e\JJ	.
=40	=40	=40	=40	=40
16D/LL	4BB\	4ee/	4e\	.
16E/	.	.	.	.
16F#/	.	.	.	.
16E/JJ	.	.	.	.
4E/	4r	4g#/	16d\LL	.
.	.	.	16e\	.
.	.	.	16f#\	.
.	.	.	16e\JJ	.
=41	=41	=41	=41	=41
16C#/LL	4AA\	8a/)	8e\	.
16D/	.	.	.	.
16E/	.	8r	8r	.
16F#/JJ	.	.	.	.
8E/	4r	[4a/	16c#\LL	.
.	.	.	16d\	.
8r	.	.	16e\	.
.	.	.	16f#\JJ	.
=42	=42	=42	=42	=42
16C#/LL	4AA\	8a/]	8e\	.
16D/	.	.	.	.
16E/	.	8r	8r	.
16F#/JJ	.	.	.	.
8E/	4r	[4a/	16c#\LL	.
.	.	.	16d\	.
8r	.	.	16e\	.
.	.	.	16f#\JJ	.
=43	=43	=43	=43	=43
16D/LL	4BB\	4a/]	4e\	p
16E/	.	.	.	.
16F#/	.	.	.	.
16E/JJ	.	.	.	.
*	*	*v	*v	*
*	*	*^	*
8E/	4r	4g#/	16d\LL	.
.	.	.	16e\	.
8r	.	.	16f#\	.
.	.	.	16e\JJ	.
=44	=44	=44	=44	=44
16E/LL	4C#\	4ee/	4e\	.
16A/	.	.	.	.
16E/	.	.	.	.
16A/JJ	.	.	.	.
4r	4r	4a/	16e\LL	.
.	.	.	16f#\	.
.	.	.	16g#\	.
.	.	.	16f#\JJ	.
=45	=45	=45	=45	=45
16F#/LL	4D#\	4cc#/	4f#\	.
16A/	.	.	.	.
16F#/	.	.	.	.
16B/JJ	.	.	.	.
4r	4r	4b/	16f#\LL	.
.	.	.	16g#\	.
.	.	.	16a\	.
.	.	.	16g#\JJ	.
=46	=46	=46	=46	=46
16G#/LL	4E\	4gg#/	4r	.
16A/	.	.	.	.
16G#/	.	.	.	.
16B/JJ	.	.	.	.
4r	4r	4cc#/	16g#\LL	.
.	.	.	16a\	.
.	.	.	16b\	.
.	.	.	16a\JJ	.
=47	=47	=47	=47	=47
16A/LL	4F#\	4ee/	4a\	.
16B/	.	.	.	.
16A/	.	.	.	.
16B/JJ	.	.	.	.
4r	4r	4dd#/	16a\LL	.
.	.	.	16b\	.
.	.	.	16cc#\	.
.	.	.	16b\JJ	.
*v	*v	*	*	*
*	*v	*v	*
=48	=48	=48
16G#\LL	4bb\	.
16A\	.	.
16B\	.	.
16A\JJ	.	.
16G#\LL	4b\ 4ee\ 4gg#\ 4bb\	.
16B\	.	.
16e\	.	.
16g#\JJ	.	.
*clefG2	*	*
=49	=49	=49
*^	*^	*
2b/	16a\LL	[4bb/	4.dd#\ 4.ff#\	f
.	16g#\	.	.	.
.	16f#\	.	.	.
.	16g#\JJ	.	.	.
.	4a\	16bb/LL]	.	.
.	.	16ccc#/	.	.
.	.	16ddd#/	8r	.
.	.	16ccc#/JJ	.	.
=50	=50	=50	=50	=50
2b/	16a\LL	[4bb/	4.dd#\ 4.ff#\	.
.	16g#\	.	.	.
.	16f#\	.	.	.
.	16g#\JJ	.	.	.
.	4a\	16bb/LL]	.	.
.	.	16ccc#/	.	.
.	.	16ddd#/	8r	.
.	.	16ccc#/JJ	.	.
*	*	*v	*v	*
=51	=51	=51	=51
8b'/L	8a'\L	8dd#\ 8bb\L	.
8b'/	8g#\	8ee'\ 8ccc#'\	.
8b'/	8a'\	8ff#'\ 8aa'\ 8ddd#'\	.
8b'/J	8e\ 8g#\J	8gg#'\ 8bb'\ 8eee'\J	.
*v	*v	*	*
=52	=52	=52
8d#'/ 8f#'/ 8b'/L	8ddd#'\ 8fff#'\L	.
8c#'/ 8e'/ 8b'/J	8eee'\ 8ggg#'\J	.
4B'/ 4d#'/ 4b'/	4fff#'\ 4aaa'\	.
=53	=53	=53
2r	4r	.
.	(8.a/L	p
.	16g#/Jk	.
=54	=54	=54
2r	8.f#/L	.
.	16g#/Jk	.
.	4a/)	.
=55	=55	=55
4r	(4g#/	.
8.e/L	4cc#\	.
16d#/Jk	.	.
=56	=56	=56
*	*^	*
8.c#/L	4r	4ee\	.
16d#/Jk	.	.	.
4e/	4cc#/)	4g#\	.
*clefF4	*	*	*
*	*v	*v	*
=57	=57	=57
4r	(2d#/ 2f#/ 2b/	.
8.F#\L	.	.
16E#\Jk	.	.
=58	=58	=58
8.F#\L	2c#/) 2e/ 2a#/	.
16En\Jk	.	.
4C#\	.	.
=59	=59	=59
4BB/	4d#/ 4b/	.
*clefG2	*	*
8.e/ 8.g#/L	8.ee\ (8.gg#\L	pp
16B/ 16f#/Jk	16b\ 16ff#\Jk	.
=60	=60	=60
8.G#/ 8.e/L	8.g#\ 8.ee\L	.
16B/ 16f#/Jk	16b\ 16ff#\Jk	.
4e/ 4g#/	4ee\ 4gg#\)	.
=61	=61	=61
*	*^	*
8b'/L	8.aa/L	4dd#\ 4ff#\	f
8B'/J	.	.	.
.	16bb/Jk	.	.
*clefF4	*	*	*
8e'\L	4r	8ee'\ 8gg#'\L	.
8E'\J	.	8gg#'\ 8eee'\J	.
*	*v	*v	*
=62	=62	=62
8B'\L	8.a\ (8.ff#\L	.
8BB'\J	.	.
.	16b\ 16gg#\Jk	.
8EE'/	8g#\ 8ee\)	.
8E\ 8G#\ 8B\	8ee\	p
=63	=63	=63
8EE/	[4b\	.
8E\ 8G#\ 8B\L	.	.
8E\ 8G#\ 8B\	16b\LL]	.
.	16cc#\	.
8E\ 8G#\ 8B\J	16dd#\	.
.	16ee\JJ	.
=64	=64	=64
*	*^	*
8EE/	4cc#/	[4e\	.
8E\ 8A\ 8c#\L	.	.	.
8E\ 8A\ 8c#\	4r	(16e\LL]	.
.	.	16f#\	.
8E\ 8A\ 8c#\J	.	16g#\	.
.	.	16a\JJ)	.
*	*v	*v	*
=65	=65	=65
8EE/	[4ff#\	.
8E\ 8F#\ 8A\ 8B\L	.	.
8E\ 8F#\ 8A\ 8B\	16ff#\LL]	.
.	16gg#\	.
8E\ 8F#\ 8A\ 8B\J	16aa\	.
.	16bb\JJ	.
=66	=66	=66
*	*^	*
8EE/	4gg#/	[4b\	.
8E\ 8G#\ 8B\L	.	.	.
8E\ 8G#\ 8B\	4r	16b\LL]	.
.	.	16cc#\	.
8E\ 8G#\ 8B\J	.	16dd#\	.
.	.	16ee\JJ	.
*	*v	*v	*
=67	=67	=67
8EE/	8b\L	<
8E\ 8G#\ 8B\L	[8b\J	.
8E\ 8G#\ 8B\	16b\LL]	.
.	16cc#\	.
8E\ 8G#\ 8B\J	16dd#\	.
.	16ee\JJ	.
=68	=68	=68
*	*^	*
8EE/	4cc#/	8e\L	.
8E\ 8A\ 8c#\L	.	[8e\J	.
8E\ 8A\ 8c#\	4r	16e\LL]	.
.	.	16f#\	.
8E\ 8A\ 8c#\J	.	16g#\	.
.	.	16a\JJ	.
=69	=69	=69	=69
8EE/	8ff#/L	4a\	.
8E\ 8F#\ 8A\ 8B\L	[8ff#/J	.	.
8E\ 8F#\ 8A\ 8B\	4r	16ff#\LL]	.
.	.	16gg#\	.
8E\ 8F#\ 8A\ 8B\J	.	16aa\	.
.	.	16bb\JJ	.
*	*v	*v	*
=70	=70	=70
16EE/LL	8b\ 8gg#\ 8bb\	p
16FF#/	.	.
16GG#/	4e/ 4g#/ 4b/	.
16AA/JJ	.	.
16GG#/LL	.	.
16AA/	.	.
16BB/	[8e/ [8g#/ [8b/	.
16C#/JJ	.	.
=71	=71	=71
16BB\LL	8.e/] 8.g#/] 8.b/L]	.
16C#\	.	.
16D#\	.	.
16E\JJ	16e/ 16g#/ 16b/Jk	.
16D#\LL	8.e/ 8.g#/ 8.b/L	.
16E\	.	.
16F#\	.	.
16G#\JJ	16e/ 16g#/ 16b/Jk	.
=72	=72	=72
8BB\ 8F#\ 8A\	16d#\ 16f#\ 16b\LL	f
.	16cc#\	.
4BBB/ 4BB/	16dd#\	.
.	16ee\JJ	.
.	16dd#\LL	.
.	16ee\	.
[8BBB/ [8BB/	16ff#\	.
.	16gg#\JJ	.
=73	=73	=73
8.BBB/] 8.BB/L]	16ff#\LL	.
.	16gg#\	.
.	16aa\	.
16BB/ 16F#/ 16A/Jk	16bb\JJ	.
8.BB\ 8.F#\ 8.A\L	16aa\LL	.
.	16bb\	.
.	16ccc#\	.
16BB\ 16F#\ 16A\Jk	16ddd#\JJ	.
=74	=74	=74
16E\LL	8eee\	.
16F#\	.	.
16G#\	4ee\ 4gg#\ 4bb\	<
16A\JJ	.	.
16G#\LL	.	.
16A\	.	.
16B\	[8ee\ [8gg#\ [8bb\	.
16c#\JJ	.	.
*clefG2	*	*
=75	=75	=75
16B/LL	8.ee\] 8.gg#\] 8.bb\L]	.
16c#/	.	.
16d#/	.	.
16e/JJ	16ee\ 16gg#\ 16bb\Jk	.
16d#/LL	8.ee\ 8.gg#\ 8.bb\L	.
16e/	.	.
16f#/	.	.
16g#/JJ	16ee\ 16gg#\ 16bb\Jk	.
=76	=76	=76
8B/ 8f#/ 8a/	16dd#\ 16ff#\ 16bb\LL	ff
*	*8va	*
.	16ccc#\	.
*clefF4	*	*
4BB\ 4B\	16ddd#\	.
.	16eee\JJ	.
.	16ddd#\LL	.
.	16eee\	.
[8BB\ [8B\	16fff#\	.
.	16ggg#\JJ	.
=77	=77	=77
8.BB\] 8.B\]	16fff#\LL	.
.	16ggg#\	.
.	16aaa\	.
*clefG2	*	*
16B/ 16f#/ 16a/	16bbb\JJ	.
8.B/ 8.f#/ 8.a/L	16aaa\LL	.
.	16bbb\	.
.	16cccc#\	.
16B/ 16f#/ 16a/Jk	16dddd#\JJ	.
=78	=78	=78
4c#/ 4e/ 4g#/	4eee\ 4ggg#\ 4eeee\	.
8r	8r	.
8A'/ 8a'/	8ff#'\ 8ccc#'\ 8fff#'\	p
=79	=79	=79
4A'/ 4a'/	4ff#'\ 4ccc#'\ 4fff#'\	.
*clefF4	*	*
8r	8r	.
8F#'\ 8f#'\	8aa'\ 8aaa'\	.
=80	=80	=80
8F#'\ 8f#'\L	8aa'/ 8aaa'/L	.
8B'\ 8f#'\	8dd#'/ 8aa'/ 8ddd#'/	.
8B'\ 8f#'\	8dd#'/ 8aa'/ 8ddd#'/	.
8E'\ 8e'\J	8ee'/ 8gg#'/ 8eee'/J	.
=81	=81	=81
4BB\ 4B\	4ff#/ 4ddd#/ 4fff#/	.
*	*X8va	*
4r	4r	.
=82	=82	=82
4D#\	4B'/ 4f#'/ 4a'/	pp
8r	8r	.
8E'\	8B'/ 8e'/ 8g#'/	.
=83	=83	=83
4E'\	4B'/ 4e'/ 4g#'/	.
8r	8r	.
8AA'/	8c#'/ 8e'/ 8f#'/	.
=84	=84	=84
8AA'/L	8c#'/ 8e'/ 8f#'/L	.
8BB'/	8d#'/ 8b'/	.
8BB'/	8d#'/ 8b'/	.
8EE'/J	8e'/J	.
=85	=85	=85
*>B1	*>B1	*>B1
4EE/	4e/	.
4r	8r	.
.	8ee\ 8eee\	f
=86:|!	=86:|!	=86:|!
*>B2	*>B2	*>B2
4EE/	4e/	.
4r	8r	.
.	8b'/	p
=87	=87	=87
*>C	*>C	*>C
2EE/ 2E/	2B/ 2e/ (2g#/	.
=88	=88	=88
*^	*	*
8E'/L	2C#\	2e/ 2a/	.
8A'/	.	.	.
8A'/	.	.	.
8E'/J	.	.	.
=89	=89	=89	=89
2E/	2GG#\	2B/ 2e/ 2b/	.
=90	=90	=90	=90
8E'/L	4.AA\	2c#/ 2e/ 2cc#/	.
8A'/	.	.	.
8A'/	.	.	.
8AA'/J	8r	.	.
=91	=91	=91	=91
2AA/	2FF#\	2d/ 2a/ 2dd/	.
=92	=92	=92	=92
8AA'/L	2CC#\	2e/ 2a/ 2ee/)	.
8E'/	.	.	.
8E'/	.	.	.
8AA'/J	.	.	.
*v	*v	*	*
=93	=93	=93
(8DD/ 8D/L	8f#/ 8a/ 8ff#/L	.
8EE/) 8E/	8cc#/ 8ee/	.
(8FF#'/ 8F#'/	(8b'/ 8dd'/	.
8DD#'/) 8D#'/J	8a'/) 8cc#'/J	.
=94	=94	=94
4EE;/ 4E;/	4a;/ 4cc#;/	.
8E;\ 8A;\ 8cn;\	8e;/ 8a;/ 8ccn;/	.
8EE'/ 8E'/	8e'/ 8ee'/	ff
=95	=95	=95
4CCn'/ 4Cn'/	4cn'/ 4ccn'/	.
4r	4r	.
=96	=96	=96
*k[]	*k[]	*k[]
4r	2r	pp
8r	.	.
8EE'/	.	.
=97	=97	=97
[4CC/	2r	.
16CC/LL]	.	.
16DD/	.	.
16EE/	.	.
16FF/JJ	.	.
=98	=98	=98
4BBB/	2r	.
8r	.	.
8DD'/	.	.
=99	=99	=99
[4BBB/	2r	.
16BBB/LL]	.	.
16CC/	.	.
16DD/	.	.
16EE/JJ	.	.
=100	=100	=100
8AAA'/L	2r	.
8AA'/	.	.
8AA'/	.	.
8GG'/J	.	.
=101	=101	=101
8AA'/L	2r	.
8GG'/J	.	.
8.FF/L	.	.
32EE/LL	.	.
32FF/JJJ	.	.
=102	=102	=102
8r	2r	.
8GG'/L	.	.
8GG'/	.	.
8FF'/J	.	.
*	*clefF4	*clefF4
=103	=103	=103
8GG'/L	4r	.
8FF'/J	.	.
(8EE/L	8r	.
16DD/L	8G'\	pp
16CC/JJ)	.	.
=104	=104	=104
16C/LL	[4E\	.
16BB/	.	.
16AA/	.	.
16GG/JJ	.	.
[4C/	16E\LL]	.
.	16F\	.
.	16G\	.
.	16A\JJ	.
=105	=105	=105
16C/LL]	4D\	.
16BB/	.	.
16AA/	.	.
16GG/JJ	.	.
[4BB-/	8r	.
.	8F'\	.
=106	=106	=106
16BB-/LL]	[4D\	.
16AA/	.	.
16GG/	.	.
16FF/JJ	.	.
[4BB-/	16D\LL]	.
.	16E\	.
.	16F\	.
.	16G\JJ	.
=107	=107	=107
16BB-/LL]	8C'\L	.
16AA/	.	.
16GG/	8B-'\	.
16FF/JJ	.	.
8EE'/L	8B-'\	.
8FF'/J	8A'\J	.
=108	=108	=108
8DD'/L	8B-'\L	.
8EE'/	8A'\J	.
8EE'/	8.G\L	.
8DD'/J	.	.
.	32F\LL	.
.	32G\JJJ	.
=109	=109	=109
8EE'/L	8r	.
8DD'/J	8A'\L	.
4CC#/	8A'\	.
.	8G'\J	.
=110	=110	=110
*^	*	*
8r	4r	8A'\L	.
8DD/	.	8G'\J	.
*	*	*clefG2	*clefG2
8F'/L	8D\L	8r	.
16G/L	16E\L	8a'/	pp
16A/JJ	16F\JJ	.	.
=111	=111	=111	=111
16B-/LL	16G\LL	[4f/	.
16A/	16F\	.	.
16G/	16E\	.	.
16F/JJ	16D\JJ	.	.
[4B-/	[4G\	16f/LL]	.
.	.	16g/	.
.	.	16a/	.
.	.	16b-/JJ	.
=112	=112	=112	=112
16B-/LL]	16G\LL]	4e/	.
16A/	16F\	.	.
16G/	16E\	.	.
16F/JJ	16D\JJ	.	.
8G/	8E\	8r	.
8r	8r	8g'/	.
=113	=113	=113	=113
16A/LL	16F\LL	[4e/	.
16G/	16E\	.	.
16F/	16D\	.	.
16E/JJ	16C#\JJ	.	.
[4A/	[4F\	16e/LL]	.
.	.	16f/	.
.	.	16g/	.
.	.	16a/JJ	.
=114	=114	=114	=114
16A/LL]	16F\LL]	8d/L	.
16G/	16E\	.	.
16F/	16D\	8dd'/	.
16E/JJ	16C#\JJ	.	.
4r	8D'\ 8F'\L	8dd'/	.
.	8F'\ 8d'\J	8ccn'/J	.
=115	=115	=115	=115
8r	8r	8dd'\L	.
8d/L	8G\L	8cc'\J	.
8d/	8G\	8.bn\L	.
8d/J	8F\J	.	.
.	.	32a\LL	.
.	.	32b\JJJ	.
*v	*v	*	*
=116	=116	=116
8G'\ 8e'\L	8r	.
8F\ 8d\J	8cc'\L	.
8E\ 8c\	8cc'\	.
8r	8b'\J	.
=117	=117	=117
*^	*	*
8r	8r	8cc'\L	.
8d/L	8F'\L	8b'\J	.
8d/	8F'\	8.a/L	.
8c/J	8E'\J	.	.
.	.	32g#/LL	.
.	.	32a/JJJ	.
=118	=118	=118	=118
*	*	*^	*
4r	8D'\ 8d'\L	4r	8b'\L	.
.	8F'\ 8c'\J	.	8a'\J	.
8c/L	4E\	8r	8.g#\L	.
8B/J	.	8ee/	.	.
.	.	.	32f#\LL	.
.	.	.	32g#\JJJ	.
=119	=119	=119	=119	=119
16c/LL	4AA\	[4cc/	16a\LL	<
16B/	.	.	16g#\	.
16A/	.	.	16f#\	.
16G#/JJ	.	.	16e\JJ	.
[4c/	4r	16cc/LL]	(4a\	.
.	.	16dd/	.	.
.	.	16ee/	.	.
.	.	16ffn/JJ	.	.
=120	=120	=120	=120	=120
16c/LL]	2E\	4b/)	16a\LL	.
(16B/	.	.	16g#\	.
16A/	.	.	16f#\	.
16G#/JJ	.	.	16e\JJ	.
[4B/	.	8r	[4g#\	.
.	.	8dd/	.	.
=121	=121	=121	=121	=121
16B/LL]	4E\)	[4b/	16g#\LL]	.
16B/	.	.	16g#\	.
16A/	.	.	16f#\	.
16G#/JJ	.	.	16e\JJ	.
8B/L	8E\L	16b/LL]	8g#\L	.
.	.	16cc/	.	.
8G#/J	8D\J	16dd/	8e\J	.
.	.	16ee/JJ	.	.
=122	=122	=122	=122	=122
4A/	4C\	8a/L	4e\	f
.	.	8aa'/	.	.
[4e/	8C#\L	8aa'/	[4a\	.
.	8A\J	8gg'/J	.	.
=123	=123	=123	=123	=123
8e/]	2D\	8aa'/L	8a\]	.
8d'/L	.	8gg'/J	8b'\L	.
8d'/	.	8.ff/L	8b'\	.
8cn'/J	.	.	8a'\J	.
.	.	32ee/LL	.	.
.	.	32ff/JJJ	.	.
=124	=124	=124	=124	=124
8d'/L	2G\	8r	8b'\L	.
8c'/J	.	8gg'/L	8a'\J	.
4B/	.	8gg'/	4g\	.
.	.	8ff'/J	.	.
=125	=125	=125	=125	=125
8r	4.C\	8gg/L	8r	.
8c'/L	.	8ff'/J	8a'\L	.
8c'/	.	8ee/L	8g'\	.
8e'/J	8B-\	16dd/L	8g'\J	.
.	.	16cc/JJ	.	.
=126	=126	=126	=126	=126
8c/L	8A\	8gg/L	8a\L	.
8A/	8r	[8ff/	8cc\	.
8Bn/	4r	8ff/]	8dd\	.
8c/J	.	[8ee/J	8g\J	.
*v	*v	*	*	*
=127	=127	=127	=127
8F\	8ee/L]	4a\	.
4f\	[8dd/	.	.
.	8dd/]	8a-\L	.
8e\	8cc/J	8g\J	.
=128	=128	=128	=128
*^	*	*	*
4d/	8r	16cc/LL	4f\	.
.	.	16b/	.	.
.	8GG'\	16a/	.	.
.	.	16b/JJ	.	.
4c/	[4EE\	16cc/LL	[4g'\	.
.	.	16b/	.	.
.	.	16a/	.	.
.	.	16g/JJ	.	.
*v	*v	*	*	*
=129	=129	=129	=129
16EE/LL]	[4cc/	16g\LL]	.
16FF/	.	16e\	.
16GG/	.	16d\	.
16AA/JJ	.	16c\JJ	.
4DD/	16cc/LL]	[4f\	.
.	16b/	.	.
.	16a/	.	.
.	16g/JJ	.	.
=130	=130	=130	=130
8r	[4b-/	16f\LL]	.
.	.	16d\	.
8GG'/	.	16c\	.
.	.	16B-\JJ	.
[4DD/	16b-/LL]	[4f\	.
.	16a/	.	.
.	16g/	.	.
.	16f/JJ	.	.
=131	=131	=131	=131
16DD/LL]	[4b-/	16f\LL]	.
16EE/	.	16e\	.
16FF/	.	16d\	.
16GG/JJ	.	16c\JJ	.
8CC'/L	16b-/LL]	8e\L	.
.	16a/	.	.
8BB-'/J	16g/	8d\J	.
.	16f/JJ	.	.
*	*v	*v	*
=132	=132	=132
8BB-'/L	8c'/ 8e'/L	.
8AA'/J	8f'/ 8cc'/	.
8.GG/L	8d'/ 8cc'/	.
.	8e'/ 8b-'/J	.
32FF/LL	.	.
32GG/JJJ	.	.
=133	=133	=133
*	*^	*
8.AA/L	8b-'/L	4c#\	.
.	8a'/J	.	.
16GG/Jk	.	.	.
8FF/L	[4a/	8d\L	.
16EE/L	.	16e\L	.
16DD/JJ	.	16f\JJ	.
=134	=134	=134	=134
4.BB-/	8a/L]	4.d\	.
.	8g/	.	.
.	8g/	.	.
8AA/	8f/J	8cn\	.
=135	=135	=135	=135
4GG/	8f/L	4B-\	.
.	8e/J	.	.
4FF/	8e/L	4A\	.
.	16d/L	.	.
.	16c/JJ	.	.
=136	=136	=136	=136
*^	*	*	*
8r	8EE\L	2cc/	8r	.
8c/L	8E\J	.	8a\L	.
8c/	4E-\	.	8a\	.
8B-/J	.	.	8g\J	.
=137	=137	=137	=137	=137
8B-/L	4D\	2dd/	8g\L	.
8A/J	.	.	8f#\J	.
8A/L	4C\	.	8f#\L	.
16G/L	.	.	16e\L	.
16F#/JJ	.	.	16d\JJ	.
=138	=138	=138	=138	=138
4B-/	4BB-\	8dd/L	4g\	.
.	.	8gg/	.	.
4r	8AA\L	8gg/	8cc\L	.
.	8BB-\J	8ff/J	8dd\J	.
=139	=139	=139	=139	=139
8r	4C\	8ff/L	8a\L	.
8B-/	.	8een/J	8g\J	.
8B-/L	4BB-\	8ee/L	8g\L	.
16A/L	.	16dd/L	16f\L	.
16G/JJ	.	16cc/JJ	16e\JJ	.
=140	=140	=140	=140	=140
8A/L	8AA\L	8ff/L	8cc\L	.
8c/	8EE\	16cc/L	8g\	.
.	.	16b-/JJ	.	.
8c/	8FF\	8a/L	8f\	.
8B-/J	8BB-\J	16g/L	8d\J	.
.	.	16f/JJ	.	.
=141	=141	=141	=141	=141
4r	8GG\L	8b-/L	16e\LL	>
.	.	.	16d\	.
.	8BB-\	8g/	16c#\	.
.	.	.	16d\JJ	.
8r	8AA\	8e/	8c#\	.
8D/	8FF\J	[8a/J	8r	.
*	*	*v	*v	*
=142	=142	=142	=142
[4BBn/	2EE\	16a/LL]	.
.	.	16g#/	.
.	.	16f#/	.
.	.	16e/JJ	.
16BB/LL]	.	8g#/	.
16C#/	.	.	.
16D/	.	8r	.
16E/JJ	.	.	.
*	*	*clefF4	*clefF4
=143	=143	=143	=143
2C#/	[4EE\	16A\LL	.
.	.	16Gn\	.
.	.	16F#\	.
.	.	16E\JJ	.
.	16EE\LL]	8G\	.
.	16FF#\	.	.
.	16GG\	8r	.
.	16AA\JJ	.	.
*v	*v	*	*
*	*clefG2	*clefG2
=144	=144	=144
*k[f#c#g#]	*k[f#c#g#]	*k[f#c#g#]
*^	*	*
[4AA/	2DD\	16g#/LL	.
.	.	16f#/	.
.	.	16e/	.
.	.	16d/JJ	.
16AA/LL]	.	8f#/	.
16BB/	.	.	.
16Cn/	.	8r	.
16D/JJ	.	.	.
*	*	*clefF4	*clefF4
=145	=145	=145	=145
4.BB/	[4DD\	16G#\LL	.
.	.	16Fn\	.
.	.	16E\	.
.	.	16D\JJ	.
.	16DD\LL]	8F/L	.
.	16EE\	.	.
*	*	*clefG2	*clefG2
8B\	16FF#\	8g#/J	.
.	16GG#\JJ	.	.
=146	=146	=146	=146
16c#/LL	8CC#\	[4e/	p
16B/	.	.	.
16A/	8r	.	.
16G#/JJ	.	.	.
[4c#/	16C#\LL	16e/LL]	.
.	16BB\	16f#/	.
.	16AA\	16g#/	.
.	16GG#\JJ	16a/JJ	.
=147	=147	=147	=147
16c#/LL]	8F#\	4d/	.
16B/	.	.	.
16A/	8r	.	.
16G#/JJ	.	.	.
[4B/	4r	8r	.
.	.	8f#'/	.
=148	=148	=148	=148
16B/LL]	4r	[4d/	.
16B/	.	.	.
16A/	.	.	.
16G#/JJ	.	.	.
4B/	16G#\LL	16d/LL]	.
.	16F#\	16e/	.
.	16E\	16f#/	.
.	16D\JJ	16g#/JJ	.
=149	=149	=149	=149
16c#/LL	8C#\	8e/L	.
16B/	.	.	.
16A/	8r	8ee'/	.
16G#/JJ	.	.	.
8c#'/L	4r	8ee'/	p
8B'/J	.	8dd'/J	.
*v	*v	*	*
=150	=150	=150
*k[]	*k[]	*k[]
*^	*	*
8c'/L	8r	8ee'\L	.
8B'/J	8D'\L	8dd'\J	.
8.A/L	8D'\	8.cc\L	.
.	8C'\J	.	.
32G/LL	.	32b\LL	.
32A/JJJ	.	32cc\JJJ	.
=151	=151	=151	=151
8r	8D'\L	8r	.
8B'/L	8C'\J	8dd'\L	.
8B'/	4BB\	8dd'\	.
8A'/J	.	8cc'\J	.
=152	=152	=152	=152
8B'/L	8r	8dd'\L	.
8A'/J	8C'\L	8cc'\J	.
8G/L	8C'\	8.b/L	.
16A/L	8BB'\J	.	.
16B/JJ	.	32a/LL	.
.	.	32g/JJJ	.
=153	=153	=153	=153
8E/L	8AA'\L	8cc\	.
8E/J	8GG'\J	4cc\	.
4D/	8FF#\L	.	.
.	16EE\L	8cc\	.
.	16DD\JJ	.	.
=154	=154	=154	=154
*	*	*^	*
8D/L	8GG\L	8r	8cc\L	.
8Gn/	8F\J	8gg/	8b\	<
8G/	8E\L	8gg/L	8cc\	.
8c/J	16D\L	16ff/L	8g\J	.
.	16C\JJ	16ee/JJ	.	.
*v	*v	*	*	*
=155	=155	=155	=155
8FF/ 8F/	8aa'/L	8a\	f
8r	8cc'/J	8r	.
8FFF/	16a/LL	4r	.
.	16b/	.	.
8r	16cc/	.	.
.	16dd/JJ	.	.
=156	=156	=156	=156
8GGG/	4b/	8r	.
8r	.	8d'\	.
8GG/	4r	16B\LL	.
.	.	16c\	.
8r	.	16d\	.
.	.	16e\JJ	.
=157	=157	=157	=157
8AA/	8r	4c\	.
8r	8ee'/	.	.
8AAA/	16cc/LL	4r	.
.	16dd/	.	.
8r	16ee/	.	.
.	16ff/JJ	.	.
=158	=158	=158	=158
8BBB/	4dd/	8r	.
8r	.	8f'\	.
8BB/	4r	16d\LL	.
.	.	16e\	.
8r	.	16f\	.
.	.	16g\JJ	.
*	*v	*v	*
=159	=159	=159
8CC'/L	8ee\ 8ccc\	.
8D'/J	8r	.
16C\LL	8e/ 8cc/	.
16D\	.	.
16E\	8r	.
16F\JJ	.	.
=160	=160	=160
8G'\L	8d/ 8b/	.
8FF'\J	8r	.
16CC/LL	8dd\ 8bb\	.
16EE/	.	.
16FF/	8r	.
16GG/JJ	.	.
=161	=161	=161
8FF'/L	8dd\ 8ddd\	.
8E'/J	8r	.
16D\LL	8f/ 8dd/	.
16E\	.	.
16F\	8r	.
16G\JJ	.	.
=162	=162	=162
*	*^	*
8A'/L	8e/ 8cc#/	4r	.
8AA/J	8r	.	.
16EE/LL	[4ccc#/	4ee\	.
16FF#/	.	.	.
16GG/	.	.	.
16AA/JJ	.	.	.
=163	=163	=163	=163
8FF#'\L	4ccc#/]	2dd#\	.
8A'\J	.	.	.
16F#\LL	[4cccn/	.	.
16G#\	.	.	.
16A\	.	.	.
16B\JJ	.	.	.
=164	=164	=164	=164
8GG#'\L	4ccc/]	2ddn\	.
8B'\J	.	.	.
16G#\LL	[4bb/	.	.
16A\	.	.	.
16B\	.	.	.
16c\JJ	.	.	.
=165	=165	=165	=165
8AA'\L	4bb/]	2cc\	.
8c'\J	.	.	.
16A\LL	[4aa/	.	.
16B\	.	.	.
16c\	.	.	.
16d\JJ	.	.	.
=166	=166	=166	=166
*^	*	*	*
4r	8BB'\L	8aa/L]	4dd\	.
.	8d'\J	8gg#/	.	.
16B/LL	8C\	8aa/	8ee\	.
16c/JJ	.	.	.	.
8E/	8C\	8a/J	16e\LL	.
.	.	.	16f#\JJ	.
=167	=167	=167	=167	=167
8F#/	16BB\LL	16a/LL	8d#\	.
.	16C#\	16gn/	.	.
8r	16D#\	16f#/	8r	.
.	16E\JJ	16e/JJ	.	.
4r	16D#\LL	8a/	16F\LL	.
.	16E\	.	16G\	.
.	16F#\	8r	16A\	.
.	16G\JJ	.	16B\JJ	.
*v	*v	*	*	*
*	*v	*v	*
=168	=168	=168
16F#\LL	16A/LL	.
16G\	16B/	.
16A\	16c/	.
16G\JJ	16B/JJ	.
16A\LL	16c/LL	.
16B\	16d#/	.
16c\	16e/	.
16d#\JJ	16f#/JJ	.
=169	=169	=169
*	*^	*
16E\ 16e\LL	16gg/LL	4g\	.
16F#\	16ff#/	.	.
16G\	16ee/	.	.
16A\JJ	16dd#/JJ	.	.
8E\	16ee/LL	16g\LL	.
.	16ddn/	16f#\	.
8r	16cc/	16e\	.
.	16b/JJ	16d\JJ	.
*	*v	*v	*
=170	=170	=170
16e\LL	16cc/LL	.
16d\	16b/	.
16c\	16a/	.
16B\JJ	16g/JJ	.
16c\LL	16a/LL	.
16B\	16g/	.
16A\	16f#/	.
16G\JJ	16e/JJ	.
=171	=171	=171
*^	*^	*
4A/	16D\LL	4r	16cc\LL	f
.	16E\	.	16b\	.
.	16F#\	.	16a\	.
.	16G\JJ	.	16g\JJ	.
4r	16F#\LL	4cc/	16A\LL	.
.	16G\	.	16B\	.
.	16A\	.	16c\	.
.	16B\JJ	.	16d\JJ	.
*v	*v	*	*	*
*	*v	*v	*
=172	=172	=172
16A\LL	16c/LL	.
16B\	16d/	.
16c\	16e/	.
16d\JJ	16f#/JJ	.
16c\LL	16e/LL	.
16d\	16f#/	.
16e\	16g/	.
16f#\JJ	16a/JJ	.
=173	=173	=173
*	*^	*
16G\ 16g\LL	16bb/LL	4b\	.
16A\	16aa/	.	.
16B\	16gg/	.	.
16c\JJ	16ff#/JJ	.	.
8G\	16gg/LL	16b\LL	.
.	16ff#/	16a\	.
8r	16ee/	16g\	.
.	16dd/JJ	16f#\JJ	.
=174	=174	=174	=174
*^	*	*	*
16g/LL	4r	16ee/LL	4r	.
16f#/	.	16dd/	.	.
16e/	.	16cc/	.	.
16d/JJ	.	16b/JJ	.	.
[4e/	16r	[4gg/	16r	.
.	16B\LL	.	16dd\LL	.
.	16A\	.	16cc\	.
.	16G\JJ	.	16b\JJ	.
=175	=175	=175	=175	=175
16e/LL]	[4A\	16gg/LL]	[4cc\	.
16f#/	.	16aa/	.	.
16g/	.	16bb/	.	.
16a/JJ	.	16ccc/JJ	.	.
[4d/	16A\LL]	[4ff#/	16cc\LL]	.
.	16A\	.	16cc\	.
.	16G\	.	16b\	.
.	16F#\JJ	.	16a\JJ	.
=176	=176	=176	=176	=176
16d/LL]	[4G\	16ff#/LL]	[4b\	.
16e/	.	16gg/	.	.
16f#/	.	16aa/	.	.
16g/JJ	.	16bb/JJ	.	.
[4c/	16G\LL]	[4ee/	16b\LL]	.
.	16G\	.	16b\	.
.	16F#\	.	16a\	.
.	16E\JJ	.	16g\JJ	.
=177	=177	=177	=177	=177
16c/LL]	4F#\	16ee/LL]	4a\	.
16d/	.	16ff#/	.	.
16e#/	.	16gg/	.	.
16f#/JJ	.	16aa/JJ	.	.
4r	16BBB/LL	8aa/L	8ff#\L	.
.	16CC#/	.	.	.
.	16DD#/	[8gg/J	(8ee\J	.
.	16EE/JJ	.	.	.
*v	*v	*	*	*
=178	=178	=178	=178
16FF#/LL	8gg/L]	8b\L)	.
16GG/	.	.	.
16AA/	[8ff#/	[8a\	.
16BB/JJ	.	.	.
16C#/LL	8ff#/]	8a\]	.
16D#/	.	.	.
16E/	[8ee/J	[8g\J	.
16F#/JJ	.	.	.
=179	=179	=179	=179
*^	*	*	*
8B/L	16G\LL	8ee/L]	8g\L]	.
.	16A\	.	.	.
8B/J	16B\	8dd#/J	8f#\J	.
.	16BB\JJ	.	.	.
8B\ 8dn\L	4r	4ee/	16e\LL	.
.	.	.	16f#\	.
(8A\ [8cn\J	.	.	16g#\	.
.	.	.	16a\JJ	.
*v	*v	*	*	*
*	*v	*v	*
=180	=180	=180
8E\) 8c\L]	16b\LL	.
.	16cc\	.
[8D\ [8B\	16dd\	.
.	16ee\JJ	.
8D\] 8B\]	16ff#\LL	.
.	16gg\	.
[8C\ [8A\J	16aa#\	.
.	16bb\JJ	.
=181	=181	=181
8C\] 8A\L]	16ccc\LL	.
.	16ddd\	.
8BB\ 8G#\	16eee\	.
.	16ee\JJ	.
8AA\ 8A\J	8aa\	.
8E\	8r	.
=182	=182	=182
*^	*	*
8r	[4C\	4r	.
8c'/	.	.	.
[4A/	16C\LL]	8r	.
.	16D\	.	.
.	16E\	8a/	.
.	16F\JJ	.	.
=183	=183	=183	=183
*	*	*^	*
16A/LL]	4BB\	4r	[4g#\	.
16B/	.	.	.	.
16c/	.	.	.	.
16d/JJ	.	.	.	.
4G#/	8r	8r	16g#\LL]	.
.	.	.	16a\	.
.	8E\	8dd/	16b\	.
.	.	.	16cc\JJ	.
=184	=184	=184	=184	=184
8A/L	[2E\	8cc/L	[4cc\	.
8e'/J	.	8ccc'/J	.	.
[4c/	.	[4aa/	16cc\LL]	.
.	.	.	16dd\	.
.	.	.	16ee\	.
.	.	.	16ff\JJ	.
=185	=185	=185	=185	=185
16c/LL]	4E\]	16aa/LL]	4b\	.
16d/	.	16bb/	.	.
16e/	.	16ccc/	.	.
16f/JJ	.	16ddd/JJ	.	.
8B/	4r	8gg#/	8r	.
8EE'/	.	8r	8dd'\	.
=186	=186	=186	=186	=186
8r	[2E\	8r	[4b\	.
8d'/	.	8bb'/	.	.
[4B/	.	[4gg#/	16b\LL]	.
.	.	.	16cc\	.
.	.	.	16dd\	.
.	.	.	16ee\JJ	.
=187	=187	=187	=187	=187
16B/LL]	8E\L]	16gg#/LL]	4cc\	.
16c/	.	16aa/	.	.
16d/	8E\J	16bb/	.	.
16e/JJ	.	16ccc/JJ	.	.
4r	16C\LL	8ccc'/L	8ee\L	.
.	16D\	.	.	.
.	16E\	8bb'/J	8dd\J	.
.	16F\JJ	.	.	.
*v	*v	*	*	*
=188	=188	=188	=188
8E\	8ccc'/L	8ee\L	.
8F'\ 8d'\L	8bb'/J	8dd\J	.
8F'\ 8d'\	8.aa/L	4cc\	.
8E'\ 8c'\J	.	.	.
.	32gg#/LL	.	.
.	32aa/JJJ	.	.
=189	=189	=189	=189
8F'\ 8d'\L	8r	8r	.
8E'\ 8c'\J	8bb'/L	8dd'\L	.
4D\ 4B\	8bb'/	8dd'\	.
.	8aa'/J	8cc'\J	.
=190	=190	=190	=190
8r	8bb'/L	8dd\L	.
8E'\ 8c'\L	8aa'/J	8cc\J	.
8E'\ 8c'\	8.gg#/L	4b\	.
8D'\ 8B'\J	.	.	.
.	32ff#/LL	.	.
.	32gg#/JJJ	.	.
=191	=191	=191	=191
8D'\ 8B'\L	8r	8r	.
8C'\ 8A'\J	8aa'/L	8cc\L	f
8r	8aa'/	8cc\	.
8B'\ 8d'\	8gg'/J	8b\J	.
*	*v	*v	*
=192	=192	=192
8B'\ 8d'\L	8r	.
8A'\ 8c'\J	8b'\ 8gg'\L	.
8r	8b'\ 8gg'\	.
8A'\ 8c'\	8a'\ 8ff'\J	.
=193	=193	=193
8A'\ 8c'\L	8r	.
8G#'\ 8B'\	8dd'\ 8ff'\L	.
8G#'\ 8B'\	8dd'\ 8ff'\	.
8A'\ 8c'\J	8cc'\ 8ee'\J	.
=194	=194	=194
*	*^	*
8C/L	8ee/L	8cc\L	.
8BB'/ 8D'/	8dd/J	8b\J	.
8BB'/ 8D'/	8cc/L	8e\L	.
8C'/ 8E'/J	16b/L	8e\J	.
.	16a/JJ	.	.
=195	=195	=195	=195
8C'\ 8E'\L	8aa'/L	8a\L	.
8C#'\ 8E'\	8gg'/J	8b-\J	.
8C#'\ 8E'\	8ff/L	8a\L	.
8D'\ 8F'\J	16ee/L	16g\L	.
.	16dd/JJ	16f\JJ	.
*	*v	*v	*
=196	=196	=196
8D#'\ 8F#'\ 8A'\ 8c'\L	8cc'\ 8ccc'\L	.
8E'\ 8A'\ 8c'\J	8cc'\ 8aa'\	.
*8ba	*	*
4EEE/ 4AAA/ 4EE/	8b'\ 8gg#'\	ff
.	8cc'\ 8aa'\J	.
=197	=197	=197
*	*^	*
[2EEE/ [2FFF#/ [2EE/	4r	16gg\LL	.
.	.	16aa#\	.
.	.	16bb\	.
.	.	16ccc\JJ	.
.	4dd#/	16g#\LL	.
.	.	16a\	.
.	.	16b\	.
.	.	16cc\JJ	.
=198	=198	=198	=198
2EEE/_ 2FFF#/_ 2EE/_	16g#/LL	4d#\	.
.	16a/	.	.
.	16b/	.	.
.	16cc/JJ	.	.
.	4d#/	16G#\LL	.
.	.	16A\	.
.	.	16B\	.
.	.	16c\JJ	.
*	*v	*v	*
=199	=199	=199
4EEE/] 4FFF#/] 4EE/]	8D#/L	.
.	8d#'/ 8a'/ 8cc'/	.
4EEE/ 4GGG#/ 4EE/	8d#'/ 8a'/ 8cc'/	.
.	8e/ 8g#/ 8b/J	.
=200	=200	=200
4EEE/ 4AAA/ 4EE/	8c/ 8d#/ 8f#/ 8b/L	.
.	8c/ 8d#/ 8f#/ 8a/	.
4EEE/ 4BBB/ 4EE/	8c/ 8d#/ 8f#/ 8a/	.
.	8B/ 8e/ 8g#/J	.
*	*clefF4	*clefF4
=201	=201	=201
16EEE/LL	16r	.
16GGG#/	16EE/LL	ff
16BBB/JJ	16GG#/	.
*X8ba	*	*
16r	16BB/JJ	.
16EE/LL	16r	.
16GG#/	16E\LL	.
16BB/JJ	16G#\	.
16r	16B\JJ	.
=202	=202	=202
16EE/LL	16r	.
16GG#/	16E\LL	.
16BB/JJ	16G\	.
16r	16B\JJ	.
*	*clefG2	*clefG2
16E\LL	16r	.
16G#\	16e/LL	.
16B\JJ	16g#/	.
16r	16b/JJ	.
=203	=203	=203
16E\LL	16r	.
16G#\	16e/LL	.
16B\JJ	16g#/	.
16r	16b/JJ	.
*clefG2	*	*
16e/LL	16r	.
16g#/	16ee\LL	.
16b/JJ	16gg#\	.
16r	16bb\JJ	.
=204	=204	=204
16e/LL	16r	.
16g#/	16ee\LL	.
16b/JJ	16gg#\	.
16r	16bb\JJ	.
*	*8va	*
8r	16eee\LL	.
.	16ggg#\	.
*clefF4	*	*
8EEE/ 8EE/	16bbb\	.
.	16eeee\JJ	.
*	*X8va	*
=205	=205	=205
*k[f#c#g#]	*k[f#c#g#]	*k[f#c#g#]
8AAA/ 8AA/L	[4cc#\ [4ee\ [4aa\ [4ccc#\	.
*clefG2	*	*
8B'/ 8b'/J	.	.
[4A/ [4a/	16cc#\] 16ee\] 16aa\] 16ccc#\LL]	.
.	16ddd\	.
.	16eee\	.
.	16fff#\JJ	.
=206	=206	=206
16A/] 16a/LL]	4b\ 4bb\	.
16B/	.	.
16c#/	.	.
16d/JJ	.	.
4G#/	8r	.
.	8ee'\ 8eee'\	.
*clefF4	*	*
=207	=207	=207
8r	[4a\ [4aa\	.
8G#'\ 8g#'\	.	.
[4F#\ [4f#\	16a\] 16aa\LL]	.
.	16bb\	.
.	16ccc#\	.
.	16ddd\JJ	.
=208	=208	=208
16F#\] 16f#\LL]	4g#\ 4gg#\	.
16G#\	.	.
16A\	.	.
16B\JJ	.	.
4E\	8r	.
.	8ccc#\	p
*clefG2	*	*
=209	=209	=209
8r	16ff#\LL	.
.	16gg#\	.
4e/ 4dd/	16aa\	.
.	16bb\JJ	.
.	16aa\LL	.
.	16gg#\	.
[8e/ [8b/	16ff#\	.
.	16gg#\JJ	.
=210	=210	=210
8e/] 8b/]	16aa\LL	.
.	16bb\	.
4e/ 4a/	16ccc#\	.
.	16ddd\JJ	.
.	16ccc#\LL	.
.	16bb\	.
8e/ 8g#/	16aa\	.
.	16bb\JJ	.
=211	=211	=211
*	*8va	*
8a/L	(16ccc#\LL	.
.	16ddd\	.
8g#/	16eee\	.
.	16fff#\JJ	.
8f#/	16ggg#\LL	.
.	16aaa\	.
8B/ 8b/J	16aa\ 16ccc#\	.
.	16ddd#\JJ)	.
=212	=212	=212
*^	*^	*
4B;/ 4b;/	4.r	4.r	4aa;\ 4fff#;\	.
8e;/ 8b;/	.	.	8gg#;\ 8eee;\	p
*v	*v	*	*	*
*	*	*X8va	*
*clefF4	*	*	*
*^	*	*	*
8EE/	8EE\	8ee/	8r	.
=213	=213	=213	=213	=213
8EE/L	[4CC#\	[4aa/	4r	.
8EE/	.	.	.	.
8EE/	16CC#\LL]	16aa/LL]	8r	.
.	16DD\	16gg#/	.	.
8EE/J	16EE\	16ff#/	[8a\	.
.	16FF#\JJ	16ee/JJ	.	.
=214	=214	=214	=214	=214
8EE/L	4BBB\	4dd/	16a\LL]	.
.	.	.	16g#\	.
8EE/	.	.	16f#\	.
.	.	.	16e\JJ	.
8EE/	4r	8r	4d\	.
8EE/J	.	8cc#/	.	.
=215	=215	=215	=215	=215
8EE/L	[4AAA\	[4ff#/	4r	.
8EE/	.	.	.	.
8EE/	16AAA\LL]	16ff#/LL]	8r	.
.	16BBB\	16ee/	.	.
8EE/J	16CC#\	16dd/	[8f#\	.
.	16DD\JJ	16cc#/JJ	.	.
=216	=216	=216	=216	=216
8EE/L	4GGG#\	4b/	16f#\LL]	.
.	.	.	16e\	.
8EE/	.	.	16d\	.
.	.	.	16c#\JJ	.
8EE/J	4r	4r	4B\	.
8EE/	.	.	.	.
*v	*v	*	*	*
*	*v	*v	*
=217	=217	=217
16FF#/LL	2r	.
16GG#/	.	.
16AA/	.	.
16BB/JJ	.	.
16AA/LL	.	.
16GG#/	.	.
16FF#/	.	.
16GG#/JJ	.	.
=218	=218	=218
*^	*	*
4r	16AA\LL	2r	.
.	16BB\	.	.
.	16C#\	.	.
.	16D\JJ	.	.
8r	16C#\LL	.	.
.	16BB\	.	.
8E/	16AA\	.	.
.	16BB\JJ	.	.
=219	=219	=219	=219
16F#/LL	16AA\LL	2r	.
16G#/	16BB\	.	.
16A/	16C#\	.	.
16B/JJ	16D\JJ	.	.
16A/LL	16C#\LL	.	.
16G#/	16BB\	.	.
16F#/	16AA\	.	.
16G#/JJ	16BB\JJ	.	.
=220	=220	=220	=220
16A/LL	16C#\LL	4r	.
16B/	16G#\	.	.
16c#/	16A\	.	.
16d/JJ	16B\JJ	.	.
16c#/LL	16A\LL	8r	.
16B/	16G#\	.	.
16A/	16F#\	8e/	.
16B/JJ	16G#\JJ	.	.
*v	*v	*	*
=221	=221	=221
16A\LL	16c#/ 16f#/LL	.
16B\	16d/ 16g#/	.
16c#\	16e/ 16a/	.
16d\JJ	16f#/ 16b/JJ	.
16c#\LL	16e/ 16a/LL	.
16B\	16d/ 16g#/	.
16A\	16c#/ 16f#/	.
16B\JJ	16d/ 16g#/JJ	.
*clefG2	*	*
=222	=222	=222
16c#/LL	16e/ 16a/LL	.
16d/	16f#/ 16b/	.
16e/	16g#/ 16cc#/	.
16f#/JJ	16a/ 16dd/JJ	.
16e/LL	16g#/ 16cc#/LL	.
16d/	16f#/ 16b/	.
16c#/	16e/ 16a/	.
16d/JJ	16f#/ 16b/JJ	.
=223	=223	=223
*	*^	*
16e/LL	16cc#/LL	16gn\LL	.
16f#/	16dd/	16a\	.
16gn/	16ee/	16b\	.
16a/JJ	16ff#/JJ	16cc#\JJ	.
16g/LL	16ee/LL	16b\LL	.
16f#/	16dd/	16a\	.
16e/	16cc#/	16g\	.
16f#/JJ	16dd/JJ	16a\JJ	.
=224	=224	=224	=224
16gn\LL	16ee/LL	16b\LL	.
16a\	16ff#/	16cc#\	.
16b\	16ggn/	16dd\	.
16cc#\JJ	16aa/JJ	16ee\JJ	.
16dd\LL	8aa/L	16ff#\LL	.
16ee\	.	16gg\	.
16dd\	8aa/J	16ff#\	.
16cc#\JJ	.	16ee\JJ	.
=225	=225	=225	=225
*^	*	*	*
16f#/LL	4d\	8aa/	8ff#\	p
16gn/	.	.	.	.
16a/	.	8r	8r	.
16b/JJ	.	.	.	.
8a/	4r	[4aa/	16dd\LL	.
.	.	.	16ee\	.
8r	.	.	16ff#\	.
.	.	.	16gg#\JJ	.
=226	=226	=226	=226	=226
16f#/LL	4d\	8aa/]	8ff#\	.
16gn/	.	.	.	.
16a/	.	8r	8r	.
16b/JJ	.	.	.	.
8a/	4r	[4aa/	16dd\LL	.
.	.	.	16ee\	.
8r	.	.	16ff#\	.
.	.	.	16ggn\JJ	.
=227	=227	=227	=227	=227
16gn/LL	4e\	8aa/]	8cc#\	.
16a/	.	.	.	.
16b/	.	8r	8r	.
16a/JJ	.	.	.	.
4r	4r	(4aa/	16cc#\LL	.
.	.	.	16ggn\	.
.	.	.	16cc#\	.
.	.	.	16gg\JJ	.
=228	=228	=228	=228	=228
16gn/LL	4e\	4gggn/	4r	.
16a/	.	.	.	.
16b/	.	.	.	.
16a/JJ	.	.	.	.
4r	4r	4ccc#/	16cc#\LL	.
.	.	.	16ggn\	.
.	.	.	16cc#\	.
.	.	.	16gg\JJ	.
=229	=229	=229	=229	=229
16f#/LL	4d'\	4ddd/)	8ff#\	.
16gn/	.	.	.	.
16a/	.	.	8r	.
16b/JJ	.	.	.	.
8a/	4r	[4aa/	16dd\LL	.
.	.	.	16ee\	.
8r	.	.	16ff#\	.
.	.	.	16ggn\JJ	.
=230	=230	=230	=230	=230
16f#/LL	4d\	8aa/]	8ff#\	.
16gn/	.	.	.	.
16a/	.	8r	8r	.
16b/JJ	.	.	.	.
8a/	4r	[4aa/	16dd\LL	.
.	.	.	16ee\	.
8r	.	.	16ff#\	.
.	.	.	16ggn\JJ	.
=231	=231	=231	=231	=231
16gn/LL	4e\	4aa/]	8cc#\	.
16a/	.	.	.	.
16b/	.	.	8r	.
16a/JJ	.	.	.	.
4r	4r	(4aa/	16cc#\LL	<
.	.	.	16ggn\	.
.	.	.	16cc#\	.
.	.	.	16gg\JJ	.
=232	=232	=232	=232	=232
16gn/LL	4e\	4gggn/	4r	.
16a/	.	.	.	.
16b/	.	.	.	.
16a/JJ	.	.	.	.
4r	4r	4ccc#/)	16cc#\LL	.
.	.	.	16ggn\	.
.	.	.	16cc#\	.
.	.	.	16gg\JJ	.
*v	*v	*	*	*
*clefF4	*	*	*
=233	=233	=233	=233
*^	*	*	*
16A/LL	4F#\	4ddd/	4r	.
16d/	.	.	.	.
16A/	.	.	.	.
16d/JJ	.	.	.	.
*v	*v	*	*	*
*clefG2	*	*	*
*^	*	*	*
8f#/	4r	(4dd/	16a\LL	.
.	.	.	16b\	.
8r	.	.	16a\	.
.	.	.	16b\JJ	.
*v	*v	*	*	*
*clefF4	*	*	*
=234	=234	=234	=234
*^	*	*	*
16B/LL	4G#\	4bb/	4r	.
16d/	.	.	.	.
16B/	.	.	.	.
16e/JJ	.	.	.	.
*v	*v	*	*	*
*clefG2	*	*	*
*^	*	*	*
8g#/	4r	4ee/	16b\LL	.
.	.	.	16cc#\	.
8r	.	.	16b\	.
.	.	.	16cc#\JJ	.
=235	=235	=235	=235	=235
16c#/LL	4A\	4ccc#/	4r	.
16e/	.	.	.	.
16c#/	.	.	.	.
16e/JJ	.	.	.	.
8a/	4r	4ee/	16cc#\LL	.
.	.	.	16dd\	.
8r	.	.	16cc#\	.
.	.	.	16dd\JJ	.
=236	=236	=236	=236	=236
16d/LL	4B\	4ddd/	4r	.
16e/	.	.	.	.
16d/	.	.	.	.
16e/JJ	.	.	.	.
8b/	4r	4gg#/	16dd\LL	.
.	.	.	16ee\	.
8r	.	.	16dd\	.
.	.	.	16ee\JJ	.
*v	*v	*	*	*
=237	=237	=237	=237
16c#/LL	4eee/	4r	.
16e/	.	.	.
16c#/	.	.	.
16e/JJ	.	.	.
8cc#\	4aa/	16ee\LL	.
.	.	16ff#\	.
8r	.	16ee\	.
.	.	16ff#\JJ	.
=238	=238	=238	=238
16d/LL	4eee/	4r	.
16e/	.	.	.
16g#/	.	.	.
16b/JJ	.	.	.
8dd\L	4ee/	16ee\LL)	.
.	.	16ff#\	.
8dd\J	.	16ee\	.
.	.	16ff#\JJ	.
=239	=239	=239	=239
*	*8va	*8va	*
*^	*	*	*
2ee/	16dd\LL	[4eee/	4.gg#\ 4.bb\	f
.	16cc#\	.	.	.
.	16b\	.	.	.
.	16cc#\JJ	.	.	.
.	4dd\	16eee/LL]	.	.
.	.	16fff#/	.	.
.	.	16ggg#/	8r	.
.	.	16fff#/JJ	.	.
=240	=240	=240	=240	=240
2ee/	16dd\LL	[4eee/	4.gg#\ 4.bb\	.
.	16cc#\	.	.	.
.	16b\	.	.	.
.	16cc#\JJ	.	.	.
.	4dd\	16eee/LL]	.	.
.	.	16fff#/	.	.
.	.	16ggg#/	8r	.
.	.	16fff#/JJ	.	.
*v	*v	*	*	*
=241	=241	=241	=241
8dd'\ 8ee'\L	8eee'/L	4gg#\ 4bb\	ff
8cc#'\ 8ee'\	8fff#/	.	.
8b'\ 8dd'\ 8ee'\	8eee'/ 8ggg#'/	8gg#\L	.
8a'\ 8cc#'\ 8ee'\J	8fff#'/ 8aaa'/J	8aa\J	.
*	*v	*v	*
=242	=242	=242
8g#'\ 8b'\ 8ee'\L	8bb'\ 8ggg#'\ 8bbb'\L	.
8f#'\ 8a'\ 8ee'\J	8ccc#'\ 8aaa'\ 8cccc#'\J	.
4e\ 4g#\ 4ee\	4ddd\ 4bbb\ 4dddd\	.
*	*X8va	*
=243	=243	=243
2r	4r	.
.	(8.dd\L	p
.	16cc#\Jk	.
=244	=244	=244
2r	8.b\L	.
.	16cc#\Jk	.
.	4dd\)	.
=245	=245	=245
4r	(4cc#\	.
8.a/L	4ff#\	p
16g#/Jk	.	.
=246	=246	=246
8.f#/L	4aa\	.
16g#/Jk	.	.
4a/	4cc#\ 4ff#\)	.
*clefF4	*	*
=247	=247	=247
4r	2g#\ 2b\ (2ee\	.
8.BB/L	.	.
16AA#/Jk	.	.
=248	=248	=248
8.BB/L	2f#\ 2a\ 2dd#\	.
16AAn/Jk	.	.
4FF#/	.	.
=249	=249	=249
4EE/	4g#\ 4ee\)	.
*clefG2	*	*
8.a/ 8.cc#/L	8.aa\ (8.ccc#\L	pp
16e/ 16b/Jk	16ee\ 16bb\Jk	.
=250	=250	=250
8.c#/ 8.a/L	8.cc#\ 8.aa\L	.
16e/ 16b/Jk	16ee\ 16bb\Jk	.
4a/ 4cc#/	4aa\ 4ccc#\)	.
=251	=251	=251
8ee'\L	8.bb\ (8.ddd\L	f
8e'\J	.	.
.	16gg#\ 16eee\Jk)	.
8a'/L	8aa'\ 8ccc#'\L	.
8A'/J	8ccc#'\ 8aaa'\J	.
=252	=252	=252
8ccc#'\L	8.dd\ (8.bb\L	.
8cc#'\J	.	.
.	16ee\ 16ccc#\Jk	.
4f#/	8cc#\ 8aa\)	.
.	8aa\	p
=253	=253	=253
*clefF4	*	*
8AA/	[4ee\	.
8A\ 8c#\ 8e\L	.	.
8A\ 8c#\ 8e\	16ee\LL]	.
.	16ff#\	.
8A\ 8c#\ 8e\J	16gg#\	.
.	16aa\JJ	.
=254	=254	=254
*	*^	*
8AA/	4ff#/	[4a\	.
8A\ 8d\ 8f#\L	.	.	.
8A\ 8d\ 8f#\	4r	16a\LL]	.
.	.	16b\	.
8A\ 8d\ 8f#\J	.	16cc#\	.
.	.	16dd\JJ	.
*	*v	*v	*
=255	=255	=255
8AA/	[4bb\	.
8A\ 8B\ 8d\ 8e\L	.	.
8A\ 8B\ 8d\ 8e\	16bb\LL]	.
.	16ccc#\	.
8A\ 8d\ 8e\J	16ddd\	.
.	16eee\JJ	.
=256	=256	=256
*	*^	*
8AA/	4ccc#/	[4ee\	.
8A\ 8c#\ 8e\L	.	.	.
8A\ 8c#\ 8e\	4r	16ee\LL]	.
.	.	16ff#\	.
8A\ 8c#\ 8e\J	.	16gg#\	.
.	.	16aa\JJ	.
*	*v	*v	*
=257	=257	=257
8AA/	8ee\L	<
8A\ 8c#\ 8e\L	[8ee\J	.
8A\ 8c#\ 8e\	16ee\LL]	.
.	16ff#\	.
8A\ 8c#\ 8e\J	16gg#\	.
.	16aa\JJ	.
=258	=258	=258
*	*^	*
8AA/	4ff#/	8a\L	.
8A\ 8d\ 8f#\L	.	[8a\J	.
[8A\ 8d\ 8f#\	4r	16a\LL]	.
.	.	16b\	.
8A\] 8d\ 8f#\J	.	16cc#\	.
.	.	[16dd\JJ	.
=259	=259	=259	=259
8AA/	8bb/L	4dd\]	.
8A\ 8B\ 8d\ 8e\L	[8bb/J	.	.
8A\ 8B\ 8d\ 8e\	16bb/LL]	4r	.
.	16ccc#/	.	.
8A\ 8B\ 8d\ 8e\J	16ddd/	.	.
.	16eee/JJ	.	.
*	*v	*v	*
=260	=260	=260
16AA/LL	8ee\ 8ccc#\ 8eee\	p
16BB/	.	.
16C#/	4a\ 4cc#\ 4ee\	.
16D/JJ	.	.
16C#/LL	.	.
16D/	.	.
16E/	[8a\ [8cc#\ [8ee\	.
16F#/JJ	.	.
=261	=261	=261
16E\LL	8.a\] 8.cc#\] 8.ee\L]	.
16F#\	.	.
16G#\	.	.
16A\JJ	16a\ 16cc#\ 16ee\Jk	.
16G#\LL	8.a\ 8.cc#\ 8.ee\L	.
16A\	.	.
16B\	.	.
16c#\JJ	16a\ 16cc#\ 16ee\Jk	.
=262	=262	=262
8E\ 8B\ 8d\	16g#/ 16b/ 16ee/LL	f
.	16f#/	.
4EE/ 4E/	16g#/	.
.	16a/JJ	.
.	16g#/LL	.
.	16a/	.
[8EE/ [8E/	16b/	.
.	16cc#/JJ	.
=263	=263	=263
8.EE/] 8.E/L]	16b\LL	.
.	16cc#\	.
.	16dd\	.
16EE/ 16BB/ 16D/Jk	16ee\JJ	.
8.EE/ 8.BB/ 8.D/L	16dd\LL	.
.	16ee\	.
.	16ff#\	.
16EE/ 16BB/ 16D/Jk	16gg#\JJ	.
=264	=264	=264
16AA/LL	8a\ 8cc#\ 8aa\	.
16BB/	.	.
16C#/	4a\ 4cc#\ 4ee\	<
16D/JJ	.	.
16C#/LL	.	.
16D/	.	.
16E/	[8a\ [8cc#\ [8ee\	.
16F#/JJ	.	.
=265	=265	=265
16E\LL	8.a\] 8.cc#\] 8.ee\L]	.
16F#\	.	.
16G#\	.	.
16A\JJ	16a\ 16cc#\ 16ee\Jk	.
16G#\LL	8.a\ 8.cc#\ 8.ee\L	.
16A\	.	.
16B\	.	.
16c#\JJ	16a\ 16cc#\ 16ee\Jk	.
=266	=266	=266
8E\ 8B\ 8d\	16g#\ 16b\ 16ee\LL	ff
.	16ff#\	.
4E\ 4e\	16gg#\	.
.	16aa\JJ	.
.	16gg#\LL	.
.	16aa\	.
[8E\ [8e\	16bb\	.
.	16ccc#\JJ	.
=267	=267	=267
8.E\] 8.e\L]	16bb\LL	.
.	16ccc#\	.
.	16ddd\	.
*clefG2	*	*
16e\ 16b\ 16dd\Jk	16eee\JJ	.
8.e\ 8.b\ 8.dd\L	16ddd\LL	.
.	16eee\	.
.	16fff#\	.
16e\ 16b\ 16dd\Jk	16ggg#\JJ	.
=268	=268	=268
4f#/ 4a/ 4cc#/	4aa\ 4ccc#\ 4aaa\	.
*clefF4	*	*
8r	8r	.
8D'\ 8d'\	8b'\ 8ff#'\ 8bb'\	p
=269	=269	=269
4D'\ 4d'\	4b'\ 4ff#'\ 4bb'\	.
8r	8r	.
8BB'\ 8B'\	8dd'\ 8ddd'\	.
=270	=270	=270
8BB'\ 8B'\L	8dd'\ 8ddd'\L	.
8E'\ 8e'\	8g#'\ 8dd'\ 8gg#'\	.
8E'\ 8e'\	8g#'\ 8dd'\ 8gg#'\	.
8AA\ 8A\J	8a'\ 8cc#'\ 8aa'\J	.
=271	=271	=271
4EE/ 4E/	4b\ 4gg#\ 4bb\	.
4r	4r	.
=272	=272	=272
4G#\	4e/ 4b/ 4dd/	pp
8r	8r	.
8A'\	8e'/ 8a'/ 8cc#'/	.
=273	=273	=273
4A\	4e/ 4a/ 4cc#/	.
8r	8r	.
8D'\	8f#'/ 8a'/ 8b'/	.
=274	=274	=274
8D'\L	8f#'/ 8a'/ 8b'/L	.
8E'\	8g#'/ 8ee'/	.
8E'\	8g#'/ 8ee'/	.
8AA'\J	8a'/J	.
=275	=275	=275
4AA/	4a/	pp
4r	4r	.
=276	=276	=276
8BBB/L	2r	.
8EE'/	.	.
8EE'/	.	.
8AAA'/J	.	.
=277	=277	=277
4AAA/	2r	.
4r	.	.
=278	=278	=278
*	*^	*
8BBB'/L	2e/	2d\	.
8EE'/	.	.	.
8EE'/	.	.	.
8AAA'/J	.	.	.
=279	=279	=279	=279
4AAA/	[4e/	2c#\	p
4r	16e/LL]	.	.
.	16f#/	.	.
.	16g#/	.	.
.	16a/JJ	.	.
=280	=280	=280	=280
8BBB'/L	2e/	2d\	.
8EE'/	.	.	.
8EE'/	.	.	.
8AAA'/J	.	.	.
=281	=281	=281	=281
4AAA/	([4a/	4c#\ 4e\	.
4r	16a/LL]	4r	.
.	16b/	.	.
.	16cc#/	.	.
.	16ee/JJ)	.	.
=282	=282	=282	=282
8BBB'/L	2e/	2d\	.
8EE'/	.	.	.
8EE'/	.	.	.
8AAA'/J	.	.	.
=283	=283	=283	=283
4AAA/	([4e/	2c#\	.
4r	16e/LL]	.	.
.	16f#/	.	.
.	16g#/	.	.
.	16a/JJ)	.	.
=284	=284	=284	=284
8BBB'/L	2e/ 2g#/	2d\	.
8EE'/	.	.	.
8EE'/	.	.	.
8AAA'/J	.	.	.
=285	=285	=285	=285
4AAA'/	([4a/	4.c#\ 4.e\	.
4r	16a/LL]	.	.
.	16b/	.	.
.	16cc#/	8r	.
.	16ee/JJ)	.	.
*	*v	*v	*
=286	=286	=286
4.AA;\ 4.C#;\ 4.E;\ 4.Gn;\	4.gn;\ 4.cc#;\ 4.ee;\ 4.ggn;\	.
8AAA'/ 8AA'/	8a'\ 8aa'\	ff
=287	=287	=287
4FFF#'/ 4FF#'/	4f#'\ 4ff#'\	.
4r	4r	.
=288	=288	=288
4r	4r	.
8r	8r	.
8AAA'/ 8AA'/	8A'/ 8a'/	p
=289	=289	=289
4FFFn'/ 4FFn'/	4Fn'/ 4fn'/	.
4r	4r	.
=290	=290	=290
4r	2r	pp
8r	.	.
8AA'/	.	.
=291	=291	=291
([4FFn/	2r	.
16FF/LL]	.	.
16GGn/	.	.
16AA/	.	.
16BB-/JJ)	.	.
*	*clefF4	*clefF4
=292	=292	=292
4EE/	4r	.
8r	8r	.
8GGn'/	8B-'\	.
=293	=293	=293
([4EE/	([4Gn\	.
16EE/LL]	16G\LL]	.
16FFn/	16A\	.
16GGn/	16B-\	.
16AA/JJ)	16cn\JJ)	.
=294	=294	=294
4FFn/	4A\	.
*	*clefG2	*clefG2
4r	8r	.
.	8ccn'\	.
=295	=295	=295
2Fn\ 2A\	([4a\	.
.	16a\LL]	.
.	16bn\	.
.	16ccn\	.
.	16dd\JJ)	.
=296	=296	=296
*^	*	*
4Bn/	4E\	4g#/	.
8r	4r	8r	.
8B'/	.	8dd\	.
=297	=297	=297	=297
([4G#/	[2E\	([4b\	.
16G#/LL]	.	16b\LL]	.
16A/	.	16cc#\	.
16B/	.	16dd\	.
16c#/JJ)	.	16ee\JJ)	.
=298	=298	=298	=298
*	*	*^	*
2B/	8E\L]	(4.dd/	8r	.
.	8Fn\J	.	8a\	.
.	[4E\	.	4g#\	.
.	.	8ee/	.	.
=299	=299	=299	=299	=299
(4A/	4.E\]	8cc#/L	4.a\	.
.	.	8aa/	.	.
8c#/)	.	8ee/J)	.	.
8e'/	8E\	8r	8r	.
*	*	*v	*v	*
=300	=300	=300	=300
4.d/	8E\L	8r	.
.	8Fn\J	4b\ 4gg#\	.
.	4E\	.	.
8e/	.	8b\ 8gg#\	.
=301	=301	=301	=301
*	*	*^	*
4.r	8E\ (8c#\L	4.r	8a\ (8aa\L	.
*clefG2	*clefG2	*	*	*
.	8a\	.	8cc#\ 8ee\	.
.	8e\J)	.	8a\ 8cc#\J)	.
*v	*v	*	*	*
*clefF4	*	*	*
*^	*	*	*
8B'/	8E\	8ee'/	8g#\	.
=302	=302	=302	=302	=302
2B/	(8E\L	4.dd/	(8g#\L	.
.	8Fn\J	.	8a\J	.
.	4E\)	.	4g#\)	.
.	.	8ee'/	.	.
*	*	*v	*v	*
=303	=303	=303	=303
4A/	8AA\L	8e/ (8cc#/L	.
.	8C#\	8a/	.
4r	8D\	8f#/	.
.	8BB\J	8d/ 8g#/J	.
=304	=304	=304	=304
*	*	*^	*
8r	8C#\L	8e/ 8a/L	8r	.
8d/L	8D\	8b/J	8f#\	.
8c#/	8E\	8a/L	4e\	.
8B/J	8E\J	16g#/L	.	.
.	.	16ee/JJ)	.	.
=305	=305	=305	=305	=305
2B/	(8E\L	(4.dd/	8g#\L	.
.	8Fn\J	.	8a\J	.
.	4E\)	.	4g#\)	.
.	.	8ee'/	.	.
=306	=306	=306	=306	=306
(4A/	4.E\	(8cc#/L	4.a\	.
.	.	8aa/	.	.
8c#/)	.	8ee/J)	.	.
8e/	8E\	8r	8r	.
=307	=307	=307	=307	=307
4.d/	4.E\	8r	8r	.
.	.	4b/ 4gg#/	(8ffn\L	.
.	.	.	8ee\J)	.
8e/	8r	8b/ 8gg#/	8r	.
=308	=308	=308	=308	=308
4.r	8E\ (8c#\L	4.r	8a\ (8aa\L	.
*clefG2	*clefG2	*	*	*
.	8a\	.	8cc#\ 8ee\	.
.	8e\J)	.	8a\ 8cc#\J)	.
*v	*v	*	*	*
*clefF4	*	*	*
*^	*	*	*
8B'/	8E\	8ee/	8g#\	.
=309	=309	=309	=309	=309
2B/	(8E\L	4.dd/	(8g#\L	.
.	8Fn\J	.	8a\J	.
.	4E\)	.	4g#\)	.
!	!	!(cc#q/LL	!.	!.
!	!	!ddq/JJ	!.	!.
.	.	8ee'/)	.	.
*v	*v	*	*	*
=310	=310	=310	=310
8A\ 8c#\L	(16.cc#/LL	8e\ 8a\L	.
.	64b/LL	.	.
.	64cc#/JJJJ	.	.
8C#\	8a/L	8e\	.
8D\	8f#/	8A\	.
8BB\J	8e/ 8g#/J	8d\J	.
=311	=311	=311	=311
8C#/L	8a/L	8e\L	.
8D/J	8b/J)	8f#\J	.
16E/LL	4r	16B/ 16g#/LL	.
*clefG2	*	*	*
16d#/	.	16f#/	.
16e/	.	16g#/	.
16f#/JJ	.	16a/JJ	.
*	*v	*v	*
=312	=312	=312
16g#/LL	16b\LL	pp
16a/	16cc#\	.
16b/	16dd\	.
16cc#/JJ	16ee\JJ	.
16a/LL	16cc#\LL	.
16g#/	16b\	.
16f#/	16a\	.
16g#/JJ	16b\JJ	.
=313	=313	=313
*	*^	*
16a\LL	8r	16cc#\LL	.
16b\	.	16dd\	.
16cc#\	8eee'/L	16ee\	.
16dd\JJ	.	16ff#\JJ	.
16cc#\LL	8aa'/J	16ee\LL	.
16b\	.	16dd\	.
16cc#\	8r	16ee\	.
16a\JJ	.	16cc#\JJ	.
*	*v	*v	*
=314	=314	=314
16g#/LL	16b\LL	.
16a/	16cc#\	.
16b/	16dd\	.
16cc#/JJ	16ee\JJ	.
16a/LL	16cc#\LL	.
16g#/	16b\	.
16f#/	16a\	.
16g#/JJ	16b\JJ	.
*clefF4	*	*
=315	=315	=315
8r	16a\ 16cc#\LL	.
.	16b\ 16dd\	.
8e'\L	16cc#\ 16ee\	.
.	16dd\ 16ff#\JJ	.
8A'\J	16cc#\ 16ee\LL	.
.	16b\ 16dd\	.
8r	16cc#\ 16ee\	.
.	16a\ 16cc#\JJ	.
*clefG2	*	*
=316	=316	=316
16g#/LL	16b\LL	.
16a/	16cc#\	.
16b/	16dd\	.
16cc#/JJ	16ee\JJ	.
16a/LL	16cc#\LL	.
16g#/	16b\	.
16f#/	16a\	.
16g#/JJ	16b\JJ	.
=317	=317	=317
8a'\L	8cc#\	.
8ee'\	8r	.
8a'\J	8r	.
8r	8eee'\	.
=318	=318	=318
8r	8aa'\	.
8ee'\L	8r	.
8a'\J	8r	.
8r	8e'/	.
*clefF4	*	*
=319	=319	=319
8r	8A'/	p
8E'/L	8r	.
8AA'/	4r	.
8EE'/J	.	.
=320	=320	=320
*8ba	*	*
(16GGG#/LL	2r	.
16AAA/	.	.
16GGG#/	.	.
16AAA/JJ	.	.
16GGG#/LL	.	.
16AAA/	.	.
16GGG#/	.	.
16AAA/JJ	.	.
=321	=321	=321
16GGG#/LL	8r	.
16AAA/	.	.
16GGG#/	8e'/	>
16AAA/JJ	.	.
16GGG#/LL	16c#/LL	.
16AAA/	16d/	.
16GGG#/	16e/	.
16AAA/JJ	16f#/JJ	.
=322	=322	=322
16GGG#/LL	8d'/L	.
16AAA/	.	.
16GGG#/	8A'/J	.
16AAA/JJ	.	.
16GGG#/LL	16F#/LL	.
16AAA/	16A/	.
16GGG#/	16d/	.
16AAA/JJ)	16B/JJ	.
=323	=323	=323
*^	*^	*
16GGG#/LL	2EEE\	4r	8G#'/L	.
16AAA/	.	.	.	.
16GGG#/	.	.	8dd'/J	.
16AAA/JJ	.	.	.	.
16GGG#/LL	.	16b/LL	4g#\	.
16AAA/	.	16cc#/	.	.
16GGG#/	.	16dd/	.	.
16AAA/JJ	.	16ee/JJ	.	.
*v	*v	*	*	*
=324	=324	=324	=324
16GGG#/LL	8cc#/L	4.a\	.
16AAA/	.	.	.
16GGG#/	8ee/	.	.
16AAA/JJ	.	.	.
16GGG#/LL	8aa/J	.	.
16AAA/	.	.	.
16GGG#/	8r	8r	.
16AAA/JJ	.	.	.
*	*v	*v	*
=325	=325	=325
16GGG#/LL	8r	.
16AAA/	.	.
16GGG#/	16e/LL	pp
16AAA/JJ	16d/JJ	.
16GGG#/LL	16c#/LL	.
16AAA/	16d/	.
16GGG#/	16e/	.
16AAA/JJ	16f#/JJ	.
=326	=326	=326
16GGG#/LL	8d/L	.
16AAA/	.	.
16GGG#/	16A/L	.
16AAA/JJ	16Gn/JJ	.
16GGG#/LL	16F#/LL	.
16AAA/	16A/	.
16GGG#/	16d/	.
16AAA/JJ	16B/JJ	.
=327	=327	=327
*^	*^	*
16GGG#/LL	2EEE\	8G#/L	4r	.
16AAA/	.	.	.	.
16GGG#/	.	16dd/L	.	pp
16AAA/JJ	.	16cc#/JJ	.	.
16GGG#/LL	.	16b/LL	4g#\	.
16AAA/	.	16cc#/	.	.
16GGG#/	.	16dd/	.	.
16AAA/JJ	.	16ee/JJ	.	.
*v	*v	*	*	*
=328	=328	=328	=328
16GGG#/LL	8cc#/L	4.a\	.
16AAA/	.	.	.
16GGG#/	8ee/	.	.
16AAA/JJ	.	.	.
16GGG#/LL	8aa/J	.	.
16AAA/	.	.	.
16GGG#/	8r	8r	.
16AAA/JJ	.	.	.
=329	=329	=329	=329
*^	*	*	*
16GGG#/LL	2EEE\	8r	2g#\	.
16AAA/	.	.	.	.
16GGG#/	.	16dd/LL	.	.
16AAA/JJ	.	16cc#/JJ	.	.
16GGG#/LL	.	16b/LL	.	.
16AAA/J	.	16cc#/	.	.
8GGG#/J	.	16dd/	.	.
.	.	16ee/JJ	.	.
*v	*v	*	*	*
=330	=330	=330	=330
16GGG#/LL	8cc#/L	4.a\	.
16AAA/	.	.	.
16GGG#/	8ee/	.	.
16AAA/JJ	.	.	.
16GGG#/LL	8aa/J	.	.
16AAA/	.	.	.
16GGG#/	8r	8r	.
16AAA/JJ	.	.	.
=331	=331	=331	=331
*^	*	*	*
16GGG#/LL	2EEE\	8r	2g#\	.
16AAA/	.	.	.	.
16GGG#/	.	16dd/LL	.	.
16AAA/JJ	.	16cc#/JJ	.	.
16GGG#/LL	.	16b/LL	.	.
16AAA/J	.	16cc#/	.	.
8GGG#/J	.	16dd/	.	.
.	.	16ee/JJ	.	.
*v	*v	*	*	*
*	*v	*v	*
=332	=332	=332
8AAA\ 8AA\L	8c#'/ 8e'/ 8a'/L	ff
8AAA\ 8CC#\ 8EE\ 8AA\	8e'/ 8a'/ 8cc#'/	.
8AAA\ 8CC#\ 8EE\ 8AA\	8a'/ 8cc#'/ 8ee'/	.
8AAA\ 8CC#\ 8EE\ 8AA\J	8a'/ 8cc#'/ 8ee'/ 8aa'/J	.
=333	=333	=333
*	*8va	*
8AAA\ 8CC#\ 8EE\ 8AA\	8cc#/ 8ee/ 8aa/ 8ccc#/	.
8r	8r	.
8AAA\ 8CC#\ 8EE\ 8AA\	8ee/ 8aa/ 8ccc#/ 8eee/	.
8r	8r	.
=334	=334	=334
4AAA\ 4CC#\ 4EE\ 4AA\	4aa\ 4ccc#\ 4eee\ 4aaa\	.
*X8ba	*X8va	*
8r;	8r;	.
==	==	==
*-	*-	*-
!!!ENC: Craig Stuart Sapp
!!!END: 2008/07/17/
!!!EEV: 2014/07/13/ (added ottavas)
